X:1
T:Winterreise - 1. Áldjon ég (Gute Nacht)
T:Zene: Franz Schubert (1797 – 1828) Szöveg: Wilhelm Müller (1794 – 1827)  Fordította: Závodszky Zoltán          
%%score 1 { 2 | 3 }
L:1/8
Q:1/4=112
M:2/4
K:C
V:1 treble nm="Ének" snm="Ének"
V:2 treble nm="Zongora" snm="Zong."
V:3 bass 
V:1
"^Mérsékelten" z z z2 | z4 | z4 | z4 | z4 | z4 |: z2 z c | BA EC | (B,>C) B,A | E>C (E/C/)(B,/C/) | %10
w: ||||||1.Mint|ván- dor jöt- tem|ré- * gen, mint|ván- dor tű- * nök *|
w: ||||||2.Az|ú- ton med- dig|ér- * jek, zord|vég- zet mond- * ja *|
 A,2 z c | BA EC | (B,>C) B,A | E>C (E/C/)(B,/C/) | A,2 z G, | CC CC | (D>E) DE | (G/F/)E D(E/F/) | %18
w: el. Mit|má- jus nyúj- tott|né- * kem, tél|zár- ja tő- * lem *|el. Ő|ben- nem lát- ta|ál- * mát, az|any- * ja már a *|
w: meg. ~S~hogy|me- lyik út- ra|tér- * jek, hű|szí- vem súg- * ja *|meg. Bús,|hold- fény- szőt- te|ár- * nyék, mely|min- * dig vé- lem *|
 E2 z C | FF FF | (G>A) GA | (c/_B/)A G>A | F2 z2 | z4 | z2 z A | F>D B,A | (E>C) A,(C/D/) | %27
w: vőt. Ő|ben- nem lát- ta|ál- * mát, az|any- * ja már a|vőt.||Így|vé- get ért az|áb- * ránd, szép *|
w: jön. Bús,|hold- fény- szőt- te|ár- * nyék, mely|min- * dig vé- lem|jön.||Csak|hó- me- ző- kön|jár- * nék, ott *|
 EE E(^F/^G/) | A2 z A | F>D B,A | (E>C) A,(C/D/) | EE EE | A,2 z2 | z4 | z4 | z4 | z4 | z4 :| %38
w: nyár- ra bús tél *|jő. Így|vé- get ért az|áb- * ránd, szép *|nyár- ra bús tél|jő.||||||
w: mesz- sze mesz- sze *|fönn. Csak|hó- me- ző- kön|jár- * nék ott *|mesz- sze mesz- sze|fönn.||||||
 z2 z c | BA EC | (B,>D) FA | E(C/D/) E^F/^G/ | A2 z c | BA EC | (B,>D) FA | E(C/D/) E(^F/^G/) | %46
w: ||||||||
w: De|ad- dig mért is|vár- * jak, hogy|míg űz- * nek in- nen|ők? Mint|kó- bor eb, künn|jár- * jak, hogy|tit- kon * lás- sam *|
 A2 z B, | CC CC | (D>E) DE | (G/F/)E D(E/F/) | E2 z C | FF FF | (G>A) GA | (c/_B/)A G>A | F2 z2 | %55
w: |||||||||
w: őt. A|szí- vem if- jú|ván- * dor, és|min- * dig vágy- ban *|ég. Ma|ná- lad van, majd|más- * hol és|min- * dig láz- ban|ég.|
 z4 | z2 z A | F>D B,A | (E>C) A,E | EA B^G | A2 z A | F>D B,A | (E>C) A,E | Ec B^G | A2 z2 | z4 | %66
w: |||||||||||
w: |A|szí- vem if- jú|ván- * dor, és|min- dig vágy- ban|ég. Ma|ná- lad van, majd|más- * hol és|min- dig láz- ban|ég.||
 z4 | z4 | z4 | z4 |[K:A] z2 z c | BA EC | (B,>C) B,F | A>C (E/C/)(B,/C/) | A,2 z c | BA EC | %76
w: ||||||||||
w: ||||Míg|té- ged rin- gat|á- * lom, mit|éj nagy csend- * je *|küld. Az|aj- tót hal- kan|
 (B,>C) B,F | A>C (E/C/)(B,/C/) | A,2 z A, | DD D(C/D/) | (E>F) EF | (A/=G/)F E(F/G/) | F2 z E | %83
w: |||||||
w: tá- * rom, ha|nyí- lik, fel * sem *|költ! Rá|kí- vül bú- san *|í- * rom e|két * szót: Áld- jon *|ég! Hogy|
 AA A(G/A/) | (B>c) Bc | GA E>D | C2 z2 | z4 | z2 z A | F>^D B,A | (E>C) A,E | EA !>!B>G | A2 z A | %93
w: ||||||||||
w: szí- ved min- dig *|hí- * vom, így|val- lom né- ked|még.||Rá|kí- vül bú- san|í- * rom e|két szót: Áld- jon|ég! Hogy|
 F>^D B,A | (E>C) A,E | Ec BG | A2 z E |"^un poco ritard.""_un poco ritard." E=c BG | %98
w: |||||
w: szí- ved min- dig|hí- * vom, így|val- lom né- ked|még, így|val- lom né- ked|
[K:C]"^a tempo" A2 z2 | z4 | z4 | z4 | z4 | z4 | z4 |] %105
w: |||||||
w: még.|||||||
V:2
!p! CC C[Cc] | [CB][CA] [CE][F,^G,C]/>B,/ | [E,A,]2 E,[F,^G,D] | [E,A,]2 E,[A,FA] | %4
 [E,A,CE]2 [A,D]/C/PB,/A,/ | [E,A,][E,A,] [E,^G,][E,G,] |: [C,E,A,]!pp![CA] [CA][CA] | %7
 [CA][CA] [CA][CA] | [B,DA][B,DA] [B,DA][B,DA] | [CEA][Ec] [CEA][DE^G] | [CEA][CA] [CA][CA] | %11
 [CA][CA] [CA][CA] | [B,DA][B,DA] [B,DA][B,DA] | [CEA][Ec] [CEA][DE^G] | [CEA][CA] [DG][B,F] | %15
 [CE]C/D/ [CE][C^F] | [CG][CG] [B,G][CG] | [B,G][CG] [CDG][B,DG] | [CEG][CE] [B,F][A,_B,G] | %19
 [A,CA]F/G/ [FA][FB] | [Fc][Fc] [Ec][Fc] | [Ec][Fc] [FGc][EGc] | [FAc][FA] [FA][FA] | %23
 !>![B,B]>[Cc] [B,B] z | !>![Ee]>[Ff] [Ee] z | !>![B,B]>[Cc] [B,B] z | !>![Ee]>[Ff] [Ee][CE] | %27
 [CE][CEA] [DEB][DE] | [CEA][CE] [CEA][CEc] | !>![B,B]>[Cc] [B,B] z | !>![Ee]>[Ff] [Ee][CE] | %31
 [CE][CEc] [DEB][DE^G] | [CEA]C C[Cc] | [CB][CA] [CE][F,^G,C]/>B,/ | [E,A,]2 E,[F,^G,B,] | %35
 [E,A,]2 E,[A,FA] | [E,A,CE]2 [A,D]/C/PB,/A,/ | [E,A,][E,A,] [D,^G,][D,G,] :| %38
 [C,E,A,][CA]!pp! [CA][CA] | [CA][CA] [CA][CA] | [B,DA][B,DA] [B,DA][B,DA] | [CEA][Ec] [CEA][DE] | %42
 [CEA][CA] [CA][CA] | [CA][CA] [CA][CA] | [B,DA][B,DA] [B,DA][B,DA] | [CEA][Ec] [CEA][DE] | %46
 [CEA][CA] [DG][B,F] |!pp! [CE]C/D/ [CE][C^F] | [CG][CG] [B,G][CG] | [B,G][CG] [CDG][B,DG] | %50
 [CEG][CE] [B,F][_B,CG] | [A,CA]F/G/ [FA][FB] | [Fc][Fc] [Ec][Fc] | [Ec][Fc] [FGc][EGc] | %54
 [FAc][FA] [FA][FA] | !>![B,B]>[Cc] [B,B] z | !>![Ee]>[Ff] [Ee] z | !>![B,B]>[Cc] [B,B] z | %58
 !>![Ee]>[Ff] [Ee][Ee] | [Ee][Ee] [Ee][Ee] | [Ee][CE] [CEA][CEc] | !>![B,B]>[Cc] [B,B] z | %62
 !>![Ee]>[Ff] [Ee][Ee] | [Ee][Ee] [Ee][Ee] | [Ee]C C[Cc] | [CB][CA] [CE][F,^G,C]/>B,/ | %66
 [E,A,]2 E,[F,^G,B,] | [E,A,]2 E,[A,FA] | [E,A,CE]2 [A,D]/C/PB,/A,/ | [E,A,][E,A,] [E,^G,][E,G,] | %70
[K:A] [C,E,A,][CA] [CA][CA] | [CA][CA] [CA][CA] | [B,A][B,A] [B,A][=CA] | [CA][Ec] [CEA][DEG] | %74
 [CEA][CA] [CA][CA] | [CA][CA] [CA][CA] | [B,A][B,A] [B,A][=CA] | [CA][Ec] [CEA][DEG] | %78
 [CEA][CA] [DA][E=G] | [DF]D/E/ [DF][DG] | [DA][DA] [CA][DA] | [CA][DA] [DEA][CEA] | %82
 [DFA]D/E/ [DF][DG] | [CA]A/B/ [Ac][A^d] | [Ae][Ae] [Ge][Ae] | [Ge]/d/[Ace] [ABe][GBe] | %86
 [Ace][CE] [CEA][CEc] | !>![B,B]>[Cc] [B,B] z | !>![Ee]>[Ff] [Ee] z | !>![B,B]>[Cc] [B,B] z | %90
 !>![Ee]>[Ff] [Ee][CEc] | [CEc][A,EA] [G,EG][B,EB] | [A,EA][CE] [CEA][CEc] | %93
 !>![B,B]>[Cc] [B,B] z | !>![Ee]>[Ff] [Ee][CEc] | [CEc][A,EA] [G,EG][B,EB] | %96
 [A,EA][A,EA] [CAc][D=ce] | [E=ce][EAe] [EGe][EBe] |[K:C] [EAe][EAc] [EAc][DFA] | %99
 [DFA][A,DF] [A,DF]!>![E,CE] | [E,CE][E,A,E] [E,^G,E][E,B,E] | [E,A,E]!pp![E,E] [E,E][E,E] | %102
 [E,E][E,CE] [E,B,E][E,^G,E] |!>(! [E,A,E][E,A,C] [E,A,C][C,E,A,]!>)! | [C,E,A,]2 z2 |] %105
V:3
 [A,,E,][A,,E,] [A,,E,][A,,E,] | [A,,E,][A,,E,] [A,,E,][A,,E,] | [A,,C,][A,,C,] [A,,C,][A,,D,] | %3
 [A,,C,][A,,C,] [A,,C,][D,,A,,D,] | [E,,A,,C,][E,,A,,C,] [F,,A,,D,][F,,A,,D,] | %5
 [E,,C,][E,,C,] [E,,B,,][E,,B,,] |: [A,,,A,,][A,,E,] [A,,E,][A,,E,] | %7
 [A,,E,][A,,E,] [A,,E,][A,,E,] | [A,,F,][A,,F,] [A,,F,][A,,F,] | [A,,E,][A,,E,] [E,,E,][E,,E,] | %10
 [A,,E,][A,,E,] [A,,E,][A,,E,] | [A,,E,][A,,E,] [A,,E,][A,,E,] | [A,,F,][A,,F,] [A,,F,][A,,F,] | %13
 [A,,E,][A,,E,] [E,,E,][E,,E,] | [A,,E,][A,,E,] [B,,D,][G,,G,] | [C,G,][C,E,] [A,,E,][A,,D,] | %16
 [G,,D,][G,,D,] [G,,D,]E,, | D,,E,,/F,,/ G,,G,, | C,,C, [C,D,][C,E,] | %19
 [F,,C,F,][F,A,] [D,A,][D,G,] | [C,G,][C,G,] [C,G,]A,, | G,,A,,/_B,,/ C,[C,,C,] | %22
 [F,,C,][A,,F,A,] [C,F,A,][F,A,] | [D,F,A,][D,F,A,] [D,F,A,][D,F,A,] | %24
 [C,E,A,][C,E,A,] [C,E,A,][C,E,A,] | [D,F,A,][D,F,A,] [D,F,A,][D,F,A,] | %26
 [C,E,A,][C,E,A,] [C,E,A,][E,,E,] | [E,,E,][E,,E,] [E,,E,][B,,E,]/>C,/ | %28
 [A,,E,][A,,E,A,] [A,,E,A,][A,,E,A,] | [D,F,A,][D,F,A,] [D,F,A,][D,F,A,] | %30
 [C,E,A,][C,E,A,] [C,E,A,][E,,E,] | [E,,E,][E,,E,] [E,,E,][B,,E,]/>C,/ | %32
 [A,,E,][A,,E,] [A,,E,][A,,E,] | [A,,E,][A,,E,] [A,,E,][A,,D,] | [A,,C,][A,,C,] [A,,C,][A,,D,] | %35
 [A,,C,][A,,C,] [A,,C,][D,,A,,D,] | [E,,A,,C,][E,,A,,C,] [F,,A,,D,][F,,A,,D,] | %37
 [E,,C,][E,,C,] [E,,B,,][E,,B,,] :| [A,,,A,,][A,,E,] [A,,E,][A,,E,] | %39
 [A,,E,][A,,E,] [A,,E,][A,,E,] | [A,,F,][A,,F,] [A,,F,][A,,F,] | [A,,E,][E,,E,] [E,,E,][B,,E,] | %42
 [A,,E,][A,,E,] [A,,E,][A,,E,] | [A,,E,][A,,E,] [A,,E,][A,,E,] | [A,,F,][A,,F,] [A,,F,][A,,F,] | %45
 [A,,E,][E,,E,] [E,,E,][B,,E,] | [A,,E,][A,,E,] [B,,D,][G,,G,] | [C,G,][C,E,] [A,,E,][A,,D,] | %48
 [G,,D,][G,,D,] [G,,D,]E,, | D,,E,,/F,,/ G,,G,, | C,,C, [C,D,][C,E,] | %51
 [F,,C,F,][F,A,] [D,A,][D,G,] | [C,G,][C,G,] [C,G,]A,, | G,,A,,/_B,,/ C,[C,,C,] | %54
 [F,,C,][A,,F,A,] [C,F,A,][F,A,] | [D,F,A,][D,F,A,] [D,F,A,][D,F,A,] | %56
 [C,E,A,][C,E,A,] [C,E,A,][C,E,A,] | [D,F,A,][D,F,A,] [D,F,A,][D,F,A,] | %58
 [C,E,A,][C,E,A,] [C,E,A,][E,,C,E,] | [E,,C,E,][E,,C,E,] [E,,D,E,][E,,B,,E,] | %60
 [A,,C,E,][A,,E,A,] [A,,E,A,][A,,E,A,] | [D,F,A,][D,F,A,] [D,F,A,][D,F,A,] | %62
 [C,E,A,][C,E,A,] [C,E,A,][E,,C,E,] | [E,,C,E,][E,,C,E,] [E,,D,E,][E,,B,,E,] | %64
 [A,,C,E,][A,,E,] [A,,E,][A,,E,] | [A,,E,][A,,E,] [A,,E,][A,,D,] | [A,,C,][A,,C,] [A,,C,][A,,D,] | %67
 [A,,C,][A,,C,] [A,,C,][D,,A,,D,] | [E,,A,,C,][E,,A,,C,] [F,,A,,D,][F,,A,,D,] | %69
 [E,,C,][E,,C,] [E,,B,,][E,,B,,] |[K:A] [A,,,A,,][A,,E,] [A,,E,][A,,E,] | %71
 [A,,E,][A,,E,] [A,,E,][A,,E,] | [A,,^D,F,][A,,D,F,] [A,,D,F,][A,,D,F,] | %73
 [A,,E,][A,,E,] [E,,E,][E,,E,] | [A,,E,][A,,E,] [A,,E,][A,,E,] | [A,,E,][A,,E,] [A,,E,][A,,E,] | %76
 [A,,^D,F,][A,,D,F,] [A,,D,F,][A,,D,F,] | [A,,E,][A,,E,] [E,,E,][E,,E,] | %78
 [A,,E,][A,,E,] [B,,D,][C,A,] | [D,A,][D,F,] [B,,F,][B,,E,] | [A,,E,][A,,E,] [A,,E,]F,, | %81
 E,,F,,/=G,,/ A,,A,, | D,,[D,F,] [B,,F,][B,,E,] | [A,,E,][A,C] [F,C][F,B,] | %84
 [E,B,][E,B,] [E,B,]C, | B,,C,/D,/ E,[E,,E,] | [A,,E,][A,,E,A,] [A,,E,A,][A,,E,A,] | %87
 [A,,^D,F,A,][A,,D,F,A,] [A,,D,F,A,][A,,B,,D,A,] | [A,,C,E,A,][A,,C,E,A,] [A,,C,E,A,][A,,C,E,A,] | %89
 [A,,^D,F,A,][A,,D,F,A,] [A,,D,F,A,][A,,B,,D,A,] | [A,,C,E,A,][A,,C,E,A,] [A,,C,E,A,][E,,C,E,] | %91
 [E,,C,E,][E,,C,E,] [E,,D,E,][E,,D,E,] | [A,,C,E,][A,,E,A,] [A,,E,A,][A,,E,A,] | %93
 [A,,^D,F,A,][A,,D,F,A,] [A,,D,F,A,][A,,B,,D,A,] | [A,,C,E,A,][A,,C,E,A,] [A,,C,E,A,][E,,C,E,] | %95
 [E,,C,E,][E,,C,E,] [E,,D,E,][E,,D,E,] | [E,,C,E,][A,,C,E,] [A,,E,A,][E,,=C,E,] | %97
 [E,,=C,E,][E,,C,E,] [E,,D,E,][E,,D,E,] |[K:C] [E,,C,E,][A,,C,E,] [A,,C,E,]!>![A,,D,F,] | %99
 [A,,D,F,][D,F,] [D,F,][E,,A,,] | E,,[E,,C,] [E,,B,,][E,,^G,,D,] | [A,,C,]E,, E,,[E,,C,] | %102
 [E,,C,][E,,A,,] [E,,^G,,][E,,B,,D,] | [A,,C,]E,, E,,[A,,,E,,A,,] | [A,,,E,,A,,]2 z2 |] %105

